Modules/BetterCms.Module.Root/Scss/base_64/icons/overlay-options.svg

<svg xmlns="http://www.w3.org/2000/svg" width="18" height="18" viewBox="0 0 18 18">
 <path fill="#fff" fill-rule="evenodd" d="m18 10.107v-2.25l-2.689-1.12c-.075-.211-.154-.416-.251-.616l1.085-2.702-1.59-1.591-2.679 1.103c-.204-.099-.413-.182-.628-.259l-1.141-2.672h-2.25l-1.111 2.663c-.225.079-.44.163-.653.264l-2.674-1.075-1.591 1.591 1.09 2.65c-.105.218-.191.439-.272.668l-2.646 1.132v2.25l2.648 1.103c.081.228.169.45.274.668l-1.07 2.667 1.591 1.591 2.657-1.094c.213.101.43.182.654.259l1.139 2.663h2.25l1.114-2.676c.213-.079.424-.163.626-.259l2.698 1.081 1.591-1.591-1.107-2.685c.094-.202.171-.407.246-.615l2.689-1.148m-9.018 2.268c-1.863 0-3.375-1.512-3.375-3.375 0-1.863 1.512-3.375 3.375-3.375 1.864 0 3.375 1.512 3.375 3.375 0 1.863-1.511 3.375-3.375 3.375"/>
</svg>

<svg xmlns="http://www.w3.org/2000/svg" preserveAspectRatio="xMidYMid" width="18" height="18" viewBox="0 0 18 18">
  <path fill="#ffffff" fill-rule="evenodd" d="M18.000,10.107 L18.000,7.857 L15.311,6.737 C15.236,6.526 15.157,6.321 15.060,6.121 L16.145,3.419 L14.555,1.828 L11.876,2.931 C11.672,2.832 11.463,2.749 11.248,2.672 L10.107,0.000 L7.857,0.000 L6.746,2.663 C6.521,2.742 6.306,2.826 6.093,2.927 L3.419,1.852 L1.828,3.443 L2.918,6.093 C2.813,6.311 2.727,6.532 2.646,6.761 L0.000,7.893 L0.000,10.143 L2.648,11.246 C2.729,11.474 2.817,11.696 2.922,11.914 L1.852,14.581 L3.443,16.172 L6.100,15.078 C6.313,15.179 6.530,15.260 6.754,15.337 L7.893,18.000 L10.143,18.000 L11.257,15.324 C11.470,15.245 11.681,15.161 11.883,15.065 L14.581,16.146 L16.172,14.555 L15.065,11.870 C15.159,11.668 15.236,11.463 15.311,11.255 L18.000,10.107 ZM8.982,12.375 C7.119,12.375 5.607,10.863 5.607,9.000 C5.607,7.137 7.119,5.625 8.982,5.625 C10.846,5.625 12.357,7.137 12.357,9.000 C12.357,10.863 10.846,12.375 8.982,12.375 Z"/>
</svg>
